%
(Generated by SketchUcam V1.4d-80c0152)
(File: B_project.skp)
(Bit diameter: 1,0mm)
(Feed rate: 2540,0mm/min)
(Material Thickness: 1,0mm)
(Material length: 200,0mm X width: 200,0mm)
(Overhead Gantry: false)
(Plunge Depth first)
(Optimization is ON)
(www.PhlatBoyz.com)
G90 G21 G49 G17 F2540
M3 S15000
G00 Z5.000
 X51.301 Y38.932
G00 Z0.500
G01 Z-1.000 F2540
 X52.392 Y41.600
 X52.756 Y42.450
 X53.127 Y43.289
 X53.501 Y44.117
 X53.876 Y44.937
 X54.249 Y45.751
 X54.615 Y46.562
 X54.974 Y47.371
 X55.320 Y48.181
 X55.651 Y48.994
 X55.965 Y49.812
 X56.258 Y50.637
 X56.528 Y51.472
 X56.770 Y52.318
 X56.984 Y53.178
 X57.165 Y54.055
 X57.311 Y54.951
 X57.419 Y55.868
 X57.486 Y56.808
 X57.509 Y57.782
 Y89.102
 X57.188 Y90.165
 X56.739 Y91.086
 X56.188 Y91.840
 X55.546 Y92.442
 X54.819 Y92.904
 X54.013 Y93.234
 X53.135 Y93.439
 X52.195 Y93.520
 X51.205 Y93.483
 X50.180 Y93.331
 X49.132 Y93.070
 X48.077 Y92.705
 X47.027 Y92.243
 X45.997 Y91.691
 X45.001 Y91.056
 X44.052 Y90.345
 X43.164 Y89.567
 X42.349 Y88.728
 X41.620 Y87.836
 X40.258 Y85.812
 X39.741 Y89.259
 X39.533 Y91.283
 X39.439 Y93.154
 X39.450 Y94.880
 X39.562 Y96.466
 X39.768 Y97.922
 X40.061 Y99.253
 X40.435 Y100.466
 X40.884 Y101.567
 X41.400 Y102.562
 X41.976 Y103.458
 X42.605 Y104.259
 X43.278 Y104.973
 X43.986 Y105.606
 X44.722 Y106.165
 X45.478 Y106.658
 X46.245 Y107.092
 X47.017 Y107.475
 X47.784 Y107.815
 X48.626 Y108.154
 X58.022
 Y126.274
 X58.130 Y127.622
 X58.443 Y128.990
 X58.942 Y130.349
 X59.606 Y131.692
 X60.419 Y133.012
 X61.365 Y134.303
 X62.426 Y135.557
 X63.588 Y136.768
 X64.834 Y137.929
 X66.150 Y139.032
 X67.520 Y140.069
 X68.929 Y141.032
 X70.360 Y141.913
 X71.801 Y142.705
 X73.234 Y143.400
 X74.646 Y143.988
 X76.023 Y144.463
 X77.350 Y144.814
 X78.615 Y145.034
 X81.900 Y145.244
 X79.511 Y143.862
 X79.057 Y143.555
 X78.672 Y143.246
 X78.350 Y142.933
 X78.085 Y142.613
 X77.868 Y142.282
 X77.693 Y141.935
 X77.555 Y141.566
 X77.450 Y141.169
 X77.374 Y140.740
 X77.324 Y140.276
 X77.297 Y139.774
 X77.290 Y139.232
 X77.298 Y138.649
 X77.318 Y138.022
 X77.344 Y137.352
 X77.373 Y136.635
 X77.399 Y135.870
 X77.418 Y135.054
 X77.426 Y134.189
 Y68.022
 X77.405 Y67.159
 X77.341 Y66.310
 X77.232 Y65.478
 X77.079 Y64.662
 X76.880 Y63.861
 X76.634 Y63.072
 X76.341 Y62.296
 X76.001 Y61.529
 X75.611 Y60.772
 X75.173 Y60.021
 X74.686 Y59.275
 X74.148 Y58.531
 X73.561 Y57.790
 X72.922 Y57.047
 X72.232 Y56.300
 X71.489 Y55.549
 X70.693 Y54.790
 X69.843 Y54.022
 X68.938 Y53.242
 X67.979 Y52.450
 X51.301 Y38.932
G00 Z5.000
 X112.873 Y45.570
G00 Z0.500
G01 Z-1.000 F2540
 X113.546 Y45.301
 X114.493 Y44.899
 X115.393 Y44.490
 X116.246 Y44.073
 X117.052 Y43.646
 X117.811 Y43.207
 X118.523 Y42.754
 X119.187 Y42.287
 X119.803 Y41.803
 X120.370 Y41.300
 X120.888 Y40.778
 X121.355 Y40.233
 X121.770 Y39.666
 X122.133 Y39.074
 X122.441 Y38.458
 X122.687 Y37.837
 X122.907 Y37.279
 X122.960 Y37.145
 X125.981 Y38.028
 Y63.304
 X112.873 Y63.330
 Y45.570
G00 Z5.000
 Y66.350
G00 Z0.500
G01 Z-1.000 F2540
 X125.773
 Y81.650
 X112.873
 Y66.350
G00 Z5.000
 X112.638 Y86.538
G00 Z0.500
G01 Z-1.000 F2540
 X125.738
 Y103.414
 X125.195 Y103.801
 X125.169 Y103.775
 X122.226 Y101.066
 X119.121 Y98.413
 X115.853 Y95.828
 X112.638 Y93.484
 Y86.538
G00 Z5.000
 X102.970 Y78.542
G00 Z0.500
G01 Z-1.000 F2540
 X102.949 Y77.679
 X102.885 Y76.830
 X102.776 Y75.998
 X102.623 Y75.182
 X102.424 Y74.381
 X102.179 Y73.593
 X101.885 Y72.816
 X101.545 Y72.050
 X101.155 Y71.292
 X100.717 Y70.541
 X100.230 Y69.795
 X99.692 Y69.052
 X99.105 Y68.310
 X98.466 Y67.567
 X97.776 Y66.821
 X97.033 Y66.070
 X96.237 Y65.311
 X95.387 Y64.543
 X94.482 Y63.763
 X93.524 Y62.971
 X76.845 Y49.453
 X77.936 Y52.120
 X78.300 Y52.971
 X78.671 Y53.809
 X79.045 Y54.637
 X79.420 Y55.458
 X79.793 Y56.272
 X80.160 Y57.083
 X80.518 Y57.892
 X80.864 Y58.702
 X81.195 Y59.515
 X81.509 Y60.332
 X81.802 Y61.158
 X82.072 Y61.992
 X82.314 Y62.838
 X82.528 Y63.699
 X82.709 Y64.576
 X82.855 Y65.471
 X82.963 Y66.388
 X83.030 Y67.329
 X83.053 Y68.302
 Y99.696
 Y131.661
 X83.386 Y133.540
 X83.755 Y135.252
 X84.167 Y136.841
 X84.624 Y138.317
 X85.128 Y139.689
 X85.680 Y140.967
 X86.281 Y142.159
 X86.934 Y143.275
 X87.638 Y144.322
 X88.395 Y145.309
 X89.204 Y146.246
 X90.067 Y147.142
 X90.984 Y148.005
 X91.955 Y148.847
 X92.982 Y149.676
 X94.067 Y150.503
 X95.209 Y151.337
 X96.411 Y152.188
 X97.674 Y153.066
 X99.000 Y153.981
 X130.203 Y175.505
 X131.664 Y175.983
 X133.057 Y176.200
 X134.409 Y176.182
 X135.712 Y175.942
 X136.961 Y175.499
 X138.151 Y174.874
 X139.282 Y174.084
 X140.353 Y173.147
 X141.366 Y172.081
 X142.321 Y170.900
 X143.219 Y169.621
 X144.059 Y168.257
 X144.842 Y166.825
 X145.567 Y165.338
 X146.234 Y163.811
 X146.842 Y162.259
 X147.389 Y160.698
 X147.876 Y159.141
 X148.300 Y157.604
 X148.674 Y156.052
 Y142.477
 X148.576 Y140.899
 X148.283 Y139.132
 X147.801 Y137.206
 X147.132 Y135.131
 X146.278 Y132.922
 X145.241 Y130.591
 X144.023 Y128.152
 X142.625 Y125.621
 X141.050 Y123.011
 X139.297 Y120.337
 X137.370 Y117.614
 X135.270 Y114.856
 X132.998 Y112.078
 X130.556 Y109.296
 X128.212 Y106.805
 X128.748 Y106.755
 X130.007 Y106.977
 X131.364 Y107.130
 X132.728 Y107.203
 X134.092 Y107.199
 X135.445 Y107.121
 X136.781 Y106.971
 X138.089 Y106.752
 X139.362 Y106.466
 X140.592 Y106.117
 X141.768 Y105.705
 X142.884 Y105.234
 X143.931 Y104.706
 X144.899 Y104.121
 X145.781 Y103.482
 X146.567 Y102.790
 X147.247 Y102.044
 X147.810 Y101.246
 X148.282 Y100.326
 Y83.105
 Y35.320
 X145.879 Y36.091
 X143.990 Y36.522
 X141.957 Y36.828
 X139.799 Y37.006
 X137.536 Y37.054
 X135.187 Y36.970
 X132.770 Y36.753
 X130.305 Y36.401
 X127.810 Y35.913
 X126.602 Y35.611
 X125.304 Y35.287
 X122.805 Y34.521
 X120.332 Y33.616
 X117.904 Y32.569
 X115.539 Y31.380
 X113.255 Y30.047
 X111.071 Y28.569
 X109.005 Y26.946
 X107.075 Y25.177
 X105.298 Y23.259
 X103.264 Y20.641
 X102.026 Y22.404
 X100.963 Y23.531
 X99.664 Y24.595
 X98.133 Y25.584
 X96.373 Y26.483
 X94.389 Y27.280
 X92.185 Y27.963
 X89.766 Y28.519
 X87.136 Y28.936
 X84.301 Y29.202
 X81.265 Y29.306
 X78.033 Y29.235
 X74.609 Y28.979
 X70.998 Y28.526
 X67.205 Y27.864
 X63.234 Y26.982
 X59.090 Y25.868
 X54.778 Y24.511
 X50.301 Y22.899
 X43.391 Y20.101
 X46.589 Y23.317
 X48.436 Y24.981
 X50.614 Y26.782
 X53.096 Y28.689
 X55.853 Y30.668
 X58.854 Y32.687
 X62.072 Y34.713
 X65.477 Y36.711
 X69.040 Y38.649
 X72.730 Y40.494
 X76.520 Y42.211
 X80.379 Y43.767
 X84.279 Y45.128
 X88.191 Y46.261
 X92.085 Y47.132
 X95.934 Y47.705
 X99.709 Y47.947
 X103.380 Y47.822
 X106.918 Y47.293
 X109.619 Y46.518
 Y112.655
 X112.119
 Y100.673
 X112.809 Y101.119
 X114.210 Y102.143
 X115.562 Y103.256
 X116.861 Y104.457
 X118.104 Y105.745
 X119.288 Y107.122
 X120.410 Y108.586
 X121.468 Y110.139
 X122.459 Y111.779
 X123.379 Y113.507
 X124.226 Y115.323
 X124.996 Y117.228
 X125.687 Y119.220
 X126.296 Y121.299
 X126.820 Y123.467
 X127.255 Y125.722
 X127.599 Y128.065
 X127.848 Y130.496
 X128.000 Y133.014
 X128.051 Y135.624
 Y147.415
 X128.024 Y149.094
 X127.945 Y150.671
 X127.812 Y152.151
 X127.627 Y153.535
 X127.390 Y154.823
 X127.102 Y156.016
 X126.764 Y157.115
 X126.377 Y158.121
 X125.941 Y159.036
 X125.457 Y159.861
 X124.927 Y160.598
 X124.350 Y161.249
 X123.727 Y161.818
 X123.057 Y162.307
 X122.337 Y162.718
 X121.567 Y163.053
 X120.745 Y163.314
 X119.868 Y163.500
 X118.938 Y163.611
 X118.104 Y163.642
 X105.618 Y154.708
 X105.055 Y154.383
 X104.601 Y154.076
 X104.216 Y153.766
 X103.894 Y153.453
 X103.629 Y153.133
 X103.412 Y152.802
 X103.237 Y152.456
 X103.099 Y152.086
 X102.994 Y151.690
 X102.918 Y151.261
 X102.868 Y150.796
 X102.841 Y150.294
 X102.834 Y149.752
 X102.842 Y149.169
 X102.862 Y148.543
 X102.888 Y147.872
 X102.917 Y147.155
 X102.943 Y146.390
 X102.962 Y145.575
 X102.970 Y144.710
 Y78.542
G00 Z5.000
 X80.455 Y151.857
G00 Z0.500
G01 Z-1.000 F2540
 X79.059 Y151.756
 X77.564 Y151.934
 X75.968 Y152.333
 X74.267 Y152.905
 X72.458 Y153.605
 X70.539 Y154.392
 X68.514 Y155.222
 X66.384 Y156.054
 X64.153 Y156.846
 X61.823 Y157.555
 X59.398 Y158.141
 X56.882 Y158.562
 X54.277 Y158.777
 X51.586 Y158.743
 X48.811 Y158.421
 X45.953 Y157.768
 X43.013 Y156.741
 X39.992 Y155.295
 X31.813 Y150.263
 X61.579 Y176.346
 X63.779 Y176.753
 X65.781
 X67.689 Y176.418
 X69.518 Y175.814
 X71.289 Y175.004
 X73.028 Y174.047
 X74.760 Y173.003
 X76.509 Y171.927
 X78.299 Y170.875
 X80.151 Y169.901
 X82.090 Y169.059
 X84.137 Y168.401
 X86.318 Y167.979
 X88.659 Y167.845
 X91.189 Y168.054
 X93.937 Y168.663
 X96.928 Y169.731
 X100.186 Y171.317
 X103.734 Y173.479
 X116.351 Y182.620
 X81.756 Y152.306
 X80.455 Y151.857
G00 Z5.000
G00 X0 Y0 (home)
M05
M30
%
