%
(Generated by SketchUcam V1.4d-80c0152)
(Bit diameter: 1,0mm)
(Feed rate: 1400,0mm/min)
(Plunge Feed rate: 400,0mm/min)
(Material Thickness: ~ 6,3mm)
(Material length: 150,0mm X width: 150,0mm)
(Overhead Gantry: false)
(Plunge Depth first)
(Optimization is ON)
(www.PhlatBoyz.com)
G90 G21 G49 G17 F400 
M3 S15000
G00 Z5.000
 X68.161 Y63.155
G00 Z0.500
G01 Z-6.350 F400 
 X61.323 Y75.000 F1400
 X68.161 Y86.845
 X81.839
 X88.677 Y75.000
 X81.839 Y63.155
 X68.161
G00 Z5.000
 X63.541 Y51.880
G00 Z0.500
G01 Z-6.350 F400 
G02 X57.9471 Y55.6335 I11.457 J23.1166 F1400
 X53.5158 Y60.707 I17.0496 J19.3636
 X50.5485 Y66.7546 I21.4803 J14.2911
 X49.2476 Y73.364 I24.4472 J8.2446
 X49.7017 Y80.0850 I25.7481 J1.6363
 X51.8798 Y86.4594 I25.2942 J-5.0836
 X55.6335 Y92.0529 I23.1166 J-11.457
 X60.707 Y96.4842 I19.3636 J-17.0496
 X66.7546 Y99.4515 I14.2911 J-21.4803
 X73.364 Y100.7524 I8.2446 J-24.4472
 X80.0850 Y100.2983 I1.6363 J-25.7481
 X86.4594 Y98.1202 I-5.0836 J-25.2942
 X92.0529 Y94.3665 I-11.457 J-23.1166
 X96.4842 Y89.293 I-17.0496 J-19.3636
 X99.4515 Y83.2454 I-21.4803 J-14.2911
 X100.7524 Y76.636 I-24.4472 J-8.2446
 X100.2983 Y69.915 I-25.7481 J-1.6363
 X98.1202 Y63.5406 I-25.2942 J5.0836
 X94.3665 Y57.9471 I-23.1166 J11.457
 X89.293 Y53.5158 I-19.3636 J17.0496
 X83.2454 Y50.5485 I-14.2911 J21.4803
 X76.636 Y49.2476 I-8.2446 J24.4472
 X69.915 Y49.7017 I-1.6363 J25.7481
 X63.5406 Y51.8798 I5.0836 J25.2942
G00 Z5.000
 X75.000 Y35.223
G00 Z0.500
G01 Z-6.350 F400 
 X40.552 Y55.111 F1400
 Y94.889
 X75.000 Y114.777
 X109.448 Y94.889
 Y55.111
 X75.000 Y35.223
G00 Z5.000
 X69.355 Y24.812
G00 Z0.500
G01 Z-6.350 F400 
G02 X56.5581 Y27.9832 I5.6436 J50.1837 F1400
 X45.0177 Y34.3583 I18.4398 J47.0130
 X35.5205 Y43.5032 I29.9793 J40.6385
 X28.7137 Y54.7944 I39.4758 J31.4946
 X25.0613 Y67.4627 I46.2821 J20.2044
 X24.8121 Y80.6446 I49.9344 J7.5372
 X27.9832 Y93.4419 I50.1837 J-5.6436
 X34.3583 Y104.9823 I47.0130 J-18.4398
 X43.5032 Y114.4795 I40.6385 J-29.9793
 X54.7944 Y121.2863 I31.4946 J-39.4758
 X67.4627 Y124.9387 I20.2044 J-46.2821
 X80.6446 Y125.1879 I7.5372 J-49.9344
 X93.4419 Y122.0168 I-5.6436 J-50.1837
 X104.9823 Y115.6417 I-18.4398 J-47.0130
 X114.4795 Y106.4968 I-29.9793 J-40.6385
 X121.2863 Y95.2056 I-39.4758 J-31.4946
 X124.9387 Y82.5373 I-46.2821 J-20.2044
 X125.1879 Y69.3554 I-49.9344 J-7.5372
 X122.0168 Y56.5581 I-50.1837 J5.6436
 X115.6417 Y45.0177 I-47.0130 J18.4398
 X106.4968 Y35.5205 I-40.6385 J29.9793
 X95.2056 Y28.7137 I-31.4946 J39.4758
 X82.5373 Y25.0613 I-20.2044 J46.2821
 X69.3554 Y24.8121 I-7.5372 J49.9344
G00 Z5.000
 X42.661 Y18.988
G00 Z0.500
G01 Z-6.350 F400 
 X10.323 Y75.000 F1400
 X42.661 Y131.012
 X107.339
 X139.677 Y75.000
 X107.339 Y18.988
 X42.661
G00 Z5.000
G00 X0 Y0 (home)
M05
M30
%
